X:1
T:Title
%%score { ( 1 3 ) | ( 2 4 ) }
L:1/8
M:6/8
K:Eb
V:1 treble nm="Grand Piano"
V:3 treble 
V:2 bass 
V:4 bass 
V:1
 z3 z2[Q:1/4=81] [EG]/[FA]/ | [GB][GB][GB] [Ac][GB][_G=A] | [GB][G,E][A,EF] [B,EG]3 | %3
 [B,DG][A,DF][G,D=E] [A,DF][A,B,][DB] | [EB]6 | [GB][GB][GB] [Ac][GB][_G=A] | [GB]EF G2 G | %7
 FBd cFc |[M:5/8] [DB]-[DB]- [DB]3 |[M:1/8] [DB]/[DB]/ |[M:3/4] [Bd][Ac] [GB][FA] [EG][DF] | %11
 [EG][FA] [_Gc] [=GB]2 [GB] | [Ge][Gd] [Gc]c dc |[M:7/8] =B-B-B- B3 [A_B] | %14
[M:3/4] [Ge][Gd] [Be][GB] AG | GF E c2 [Ec] | z2 z .G3 |[M:5/8] [G,E]-[G,E]- [G,E]3 |] %18
V:2
 z3 z2 [E,B,] | [E,E][E,E][E,E] [E,E][E,E][E,E] | [E,E]E,E, E,3 | B,,B,,B,, B,,D,[B,,A,] | %4
 [E,G,]6 | [E,E][E,E][E,E] [E,E][E,E][E,E] | [E,E][E,G,][E,A,E] [E,B,E]2 [E,B,E] | %7
 [F,B,D][F,B,D][F,B,F] [F,=A,E][F,A,E][F,A,E] |[M:5/8] [B,,B,]-[B,,B,]- [B,,B,]3 | %9
[M:1/8] [B,,B,]/[B,,B,]/ |[M:3/4] [B,,B,][B,,B,] [B,,B,][B,,B,] [B,,B,][B,,B,] | %11
 [E,B,][E,B,] [E,=A,] [E,B,]2 [E,B,] | [C,C][D,=B,] [E,C][K:treble][A,CE] [A,B,F][A,CF] | %13
[M:7/8] [G,DG]-[G,DG]-[G,DG]- [G,DG]3[K:bass] [F,B,] | %14
[M:3/4] [E,B,][F,B,] [G,E][E,E] [E,CE][E,B,E] | [E,B,E][F,B,D] [G,B,] [A,E]2 [A,,A,] | %16
 [B,,G,]B,, .B,,2 A,B,, |[M:5/8] E,-E,- E,3 |] %18
V:3
 x6 | x6 | x6 | x6 | x6 | x6 | x6 | x6 |[M:5/8] x5 |[M:1/8] x |[M:3/4] x6 | x6 | x6 |[M:7/8] x7 | %14
[M:3/4] x6 | x6 | [EB][B,EG] [CEA][B,E] C[A,DF] |[M:5/8] x5 |] %18
V:4
 x6 | x6 | x6 | x6 | x6 | x6 | x6 | x6 |[M:5/8] x5 |[M:1/8] x |[M:3/4] x6 | x6 | x3[K:treble] x3 | %13
[M:7/8] x6[K:bass] x |[M:3/4] x6 | x6 | z2 z .B,,3 |[M:5/8] x5 |] %18

